X:4885
T:Over the Hills & Far Away
O:england
C:Traditional
M:4/4
L:1/8
K:G
D2|GABA GABA|G2E2E2D2|GABA GABG|
c2A2A2D2|GABA GABA|G2E2c4|E2DC D2B2|
c2A2A2:|
|:Bc|d3c B3A|G2E2E2Bc|d2dc B2AB|
c2A2A2Bc|de dc Bc BA|G2E2c4|E2DC D2B2|
c2A2A2:|


